assets/images/avatars/user/custom-avatars/season-f1/helmet-yellow400.svg

<svg width="52" height="52" viewBox="0 0 52 52" fill="none" xmlns="http://www.w3.org/2000/svg">
<g clip-path="url(#clip0_26_81625)">
<rect width="52" height="52" fill="#FED607"/>
<path d="M26 52C40.3594 52 52 40.3594 52 26C52 11.6406 40.3594 0 26 0C11.6406 0 0 11.6406 0 26C0 40.3594 11.6406 52 26 52Z" fill="#FED607"/>
<path d="M26.0001 46.7669C37.4692 46.7669 46.7668 37.4693 46.7668 26.0002C46.7668 14.531 37.4692 5.2334 26.0001 5.2334C14.5309 5.2334 5.23328 14.531 5.23328 26.0002C5.23328 37.4693 14.5309 46.7669 26.0001 46.7669Z" fill="#FED607" stroke="#002140" stroke-width="0.65" stroke-miterlimit="10"/>
<path d="M39.0518 17.1084C40.014 19.7112 40.2874 22.5908 40.014 25.3667C39.9863 25.6435 39.9552 25.917 39.9206 26.1835L39.6886 26.1523C37.8058 26.1316 36.2933 26.5538 34.5454 27.2668C34.8292 23.5357 36.0302 19.6766 38.8268 17.188L39.0518 17.1084Z" fill="#FFF2B2"/>
<path d="M13.6783 39.6821C12.9238 36.5879 12.3389 33.6425 12.1416 30.5586C12.685 30.8874 13.4118 31.2474 14.3706 31.5727C14.7028 31.6869 15.0593 31.7942 15.447 31.8946L15.3812 32.1369C15.2566 34.7016 15.7481 37.8789 15.7481 37.8789C15.7481 37.8789 20.0226 39.4675 23.6879 38C23.6879 36.7782 23.5633 35.3142 23.5633 32.8706L23.463 32.2892C24.8751 32.04 26.1557 31.6489 27.2425 31.2301L28.0905 31.282C27.824 32.8983 28.0178 34.5112 28.1493 36.1414C30.2918 34.7639 32.448 33.376 34.8051 32.4172C36.0719 31.9015 37.3905 31.5104 38.7369 31.2543L38.8096 31.275C38.5189 32.2822 38.1935 33.2963 37.8543 34.352V34.4074C37.3732 34.5285 36.8956 34.6773 36.4283 34.8539C34.8224 35.4492 33.2995 36.3283 31.8458 37.2455C29.4403 38.758 27.0695 40.4263 24.3456 41.2327C21.6736 42.0219 18.7558 41.8765 16.1496 40.9143C15.3016 40.6028 14.4882 40.2082 13.7233 39.7271L13.6783 39.6821Z" fill="#FFF2B2"/>
<path d="M35.7777 11.9722L35.6116 12.1452C32.2543 14.1596 29.8211 17.6484 29.0943 21.4937L28.9627 22.231C27.606 21.9887 26.1039 21.7914 24.5602 21.6356C24.2521 21.6045 23.9441 21.5733 23.6326 21.5457C23.9268 18.531 25.1555 15.6963 27.2287 13.4847H19.9361C17.8421 15.3295 16.4923 17.998 16.25 20.7773L16.2431 21.1303C14.9659 21.1061 13.8618 21.113 13.0381 21.1476V21.1338C14.0384 17.8076 15.8416 14.7411 18.4617 12.4706C21.0125 10.2624 23.4007 9.15481 26.1973 8.74986C29.6619 8.248 33.2407 9.5563 35.7777 11.9722Z" fill="#FFF2B2"/>
<path d="M20.8637 32.5555C20.1507 32.5797 19.4169 32.5555 18.6659 32.4759C17.4164 32.3409 16.3504 32.1367 15.447 31.8944C15.0594 31.794 14.7029 31.6867 14.3706 31.5725L14.3914 31.5171L29.1462 22.5632L29.1981 22.2725C30.2503 22.4628 31.209 22.6809 32.012 22.9266C32.012 22.9266 32.0812 24.5118 31.9428 25.7613L31.7697 25.744L20.8568 32.2578L20.8637 32.5555Z" fill="#FFF2B2"/>
<path d="M23.6326 21.5461C23.9441 21.5738 24.2521 21.605 24.5602 21.6361L24.5498 21.733L11.2037 29.704L11.0721 29.7698C10.9614 29.6729 10.8818 29.5932 10.8229 29.5344C10.6672 28.2192 10.6741 26.762 10.7537 25.613H10.7779L17.8144 21.2208V21.1758C19.6211 21.2415 21.639 21.3627 23.6326 21.5461Z" fill="#FFF2B2"/>
<path d="M31.8838 26.2079C31.6727 27.4885 31.0739 29.278 31.0739 29.278C31.0739 29.278 29.6064 30.3198 27.2425 31.23C26.1557 31.6488 24.875 32.0399 23.4629 32.2891C22.6392 32.4345 21.767 32.5314 20.8636 32.5556L20.8567 32.258L31.7696 25.7441L31.9427 25.7614C31.9288 25.9172 31.9081 26.066 31.8838 26.2079Z" fill="#002140"/>
<path d="M29.1981 22.2726L29.1462 22.5633L14.3914 31.5173L14.3706 31.5726C13.4119 31.2473 12.685 30.8873 12.1416 30.5551C11.6432 30.254 11.2971 29.9771 11.0721 29.7694L11.2037 29.7036L24.5498 21.7327L24.5602 21.6357C26.1038 21.7915 27.606 21.9888 28.9627 22.2311C29.0423 22.2414 29.1219 22.2553 29.1981 22.2726Z" fill="#002140"/>
<path d="M10.7779 25.2701C10.906 23.7783 11.3767 22.117 11.5878 21.3071C11.7955 21.2309 12.3043 21.179 13.038 21.1479C13.8618 21.1133 14.9659 21.1063 16.243 21.1306C16.7449 21.1409 17.271 21.1548 17.8178 21.1755V21.2205L10.7779 25.6127H10.7537C10.7606 25.495 10.7675 25.3808 10.7779 25.2701Z" fill="#002140"/>
<path d="M16.6342 41.6996C16.4681 41.6096 15.9801 41.3881 16.1497 40.9174C18.7559 41.8761 21.6736 42.0215 24.3456 41.2324C27.0695 40.4259 29.4404 38.7577 31.8459 37.2451C33.2996 36.3279 34.8224 35.4488 36.4284 34.8535L36.4457 34.9054C36.8749 35.2481 36.7503 35.9818 36.5669 36.1895C36.3834 36.4006 36.11 36.5079 35.8504 36.6118C31.5828 38.3319 29.4923 41.3708 24.9825 42.2949C23.5288 42.5926 22.1547 42.7345 20.6699 42.6653C19.327 42.6064 17.856 42.3676 16.6342 41.6996Z" fill="#002140"/>
<path d="M13.0381 21.1338C14.0384 17.8076 15.8416 14.7411 18.4617 12.4706C21.0125 10.2624 23.4007 9.15481 26.1973 8.74986C29.6619 8.248 33.2407 9.5563 35.7777 11.9722C36.2623 12.4325 36.7087 12.9344 37.1102 13.4743C37.9374 14.5853 38.5812 15.814 39.0519 17.1085C40.0141 19.7113 40.2875 22.5909 40.0141 25.3667C39.9864 25.6436 39.9553 25.9171 39.9207 26.1836C39.6888 27.966 39.2942 29.6101 38.8097 31.2749C38.5189 32.2821 38.1936 33.2962 37.8544 34.3518" stroke="#002140" stroke-width="0.65" stroke-linecap="round" stroke-linejoin="round"/>
<path d="M13.6783 39.6821C12.9238 36.5879 12.3389 33.6425 12.1416 30.5586" stroke="#002140" stroke-width="0.65" stroke-linecap="round" stroke-linejoin="round"/>
<path d="M13.7234 39.727C14.4883 40.2081 15.3017 40.6026 16.1496 40.9141C18.7559 41.8763 21.6736 42.0217 24.3456 41.2326C27.0695 40.4261 29.4404 38.7579 31.8459 37.2453C33.2995 36.3281 34.8224 35.449 36.4284 34.8537C36.8956 34.6772 37.3733 34.5284 37.8578 34.4072" stroke="#002140" stroke-width="0.65" stroke-linecap="round" stroke-linejoin="round"/>
<path d="M10.7537 25.6127C10.7606 25.495 10.7676 25.3808 10.7779 25.2701C10.906 23.7783 11.3767 22.117 11.5878 21.3071C11.7955 21.2309 12.3043 21.179 13.0381 21.1479C13.8618 21.1133 14.9659 21.1063 16.2431 21.1306C16.7449 21.1409 17.271 21.1548 17.8179 21.1755C19.6211 21.2413 21.639 21.3625 23.6326 21.5459C23.9441 21.5736 24.2521 21.6047 24.5602 21.6359C26.1038 21.7916 27.6059 21.9889 28.9627 22.2312C29.0423 22.2416 29.1219 22.2554 29.1981 22.2727C30.2502 22.4631 31.209 22.6811 32.012 22.9269C32.012 22.9269 32.0812 24.5121 31.9427 25.7615C31.9289 25.9173 31.9081 26.0661 31.8839 26.208C31.6728 27.4886 31.074 29.2781 31.074 29.2781C31.074 29.2781 29.6065 30.3199 27.2425 31.2301C26.1557 31.6489 24.8751 32.04 23.463 32.2892C22.6392 32.4346 21.767 32.5315 20.8637 32.5557C20.1507 32.58 19.4169 32.5557 18.6658 32.4761C17.4164 32.3411 16.3504 32.1369 15.447 31.8947C15.0594 31.7943 14.7029 31.687 14.3706 31.5728C13.4119 31.2474 12.685 30.8875 12.1416 30.5552C11.6432 30.2541 11.2971 29.9772 11.0721 29.7695C10.9614 29.6726 10.8818 29.593 10.8229 29.5342C10.6672 28.2189 10.6741 26.7618 10.7537 25.6127Z" stroke="#002140" stroke-width="0.65" stroke-linecap="round" stroke-linejoin="round"/>
<path d="M16.1497 40.9173C15.9801 41.388 16.4681 41.6095 16.6342 41.6995C17.856 42.3675 19.327 42.6063 20.6699 42.6651C22.1547 42.7343 23.5288 42.5924 24.9825 42.2948C29.4923 41.3707 31.5828 38.3318 35.8504 36.6116C36.11 36.5078 36.3834 36.4005 36.5669 36.1893C36.7503 35.9817 36.8749 35.2479 36.4457 34.9053" stroke="#002140" stroke-width="0.65" stroke-linecap="round" stroke-linejoin="round"/>
<path d="M15.3812 32.1367C15.2566 34.7014 15.7481 37.8787 15.7481 37.8787C15.7481 37.8787 20.0226 39.4674 23.6879 37.9999C23.6879 36.7781 23.5633 35.314 23.5633 32.8705" stroke="#002140" stroke-width="0.65" stroke-linecap="round" stroke-linejoin="round"/>
<path d="M16.25 20.777C16.4923 17.9977 17.8421 15.3292 19.9361 13.4844H27.2287C25.1555 15.696 23.9268 18.5307 23.6326 21.5453C23.6257 21.573 23.6257 21.5973 23.6222 21.625" stroke="#002140" stroke-width="0.65" stroke-linecap="round" stroke-linejoin="round"/>
<path d="M35.6116 12.1455C32.2543 14.1599 29.8211 17.6487 29.0942 21.494" stroke="#002140" stroke-width="0.65" stroke-linecap="round" stroke-linejoin="round"/>
<path d="M28.0905 31.2816C27.824 32.8979 28.0179 34.5108 28.1494 36.141C30.2918 34.7635 32.4481 33.3756 34.8051 32.4169C36.0719 31.9011 37.3906 31.51 38.737 31.2539" stroke="#002140" stroke-width="0.65" stroke-linecap="round" stroke-linejoin="round"/>
<path d="M38.8268 17.1885C36.0302 19.677 34.8292 23.5362 34.5454 27.2673C36.2933 26.5543 37.8058 26.132 39.6886 26.1528" stroke="#002140" stroke-width="0.65" stroke-linecap="round" stroke-linejoin="round"/>
</g>
<defs>
<clipPath id="clip0_26_81625">
<rect width="52" height="52" fill="white"/>
</clipPath>
</defs>
</svg>

<svg xmlns="http://www.w3.org/2000/svg" width="52" height="52" fill="none" viewBox="0 0 52 52"><g clip-path="url(#a)"><path fill="#fed607" d="M0 0h52v52H0z"/><path fill="#fed607" d="M26 52c14.36 0 26-11.64 26-26S40.36 0 26 0 0 11.64 0 26s11.64 26 26 26"/><path fill="#fed607" stroke="#002140" stroke-miterlimit="10" stroke-width=".65" d="M26 46.767c11.47 0 20.767-9.298 20.767-20.767S37.469 5.233 26 5.233C14.53 5.233 5.233 14.531 5.233 26c0 11.47 9.298 20.767 20.767 20.767Z"/><path fill="#fff2b2" d="M39.052 17.108c.962 2.603 1.235 5.483.962 8.259q-.042.416-.093.816l-.232-.03c-1.883-.021-3.396.4-5.144 1.114.284-3.731 1.485-7.59 4.282-10.079zM13.678 39.682c-.754-3.094-1.34-6.04-1.536-9.123.543.328 1.27.688 2.229 1.014q.496.17 1.076.322l-.066.242c-.124 2.565.367 5.742.367 5.742s4.275 1.589 7.94.121c0-1.222-.125-2.686-.125-5.13l-.1-.58a20.5 20.5 0 0 0 3.78-1.06l.848.052c-.267 1.616-.073 3.23.058 4.86 2.143-1.378 4.299-2.766 6.656-3.725a20.7 20.7 0 0 1 3.932-1.163l.073.021c-.291 1.007-.617 2.021-.956 3.077v.055c-.48.122-.958.27-1.426.447-1.606.595-3.128 1.474-4.582 2.392-2.406 1.512-4.776 3.18-7.5 3.987-2.672.789-5.59.644-8.196-.319a13 13 0 0 1-2.427-1.187zm22.1-27.71-.166.173c-3.358 2.015-5.79 5.503-6.518 9.349l-.131.737a59 59 0 0 0-4.403-.595q-.461-.048-.927-.09c.294-3.015 1.523-5.85 3.596-8.061h-7.293a11.12 11.12 0 0 0-3.686 7.292l-.007.353a55 55 0 0 0-3.205.018v-.014c1-3.326 2.804-6.393 5.424-8.663 2.55-2.209 4.939-3.316 7.735-3.721 3.465-.502 7.044.806 9.58 3.222"/><path fill="#fff2b2" d="M20.864 32.556q-1.07.038-2.198-.08a21 21 0 0 1-3.219-.582q-.58-.15-1.076-.321l.02-.056 14.755-8.954.052-.29c1.052.19 2.011.408 2.814.654 0 0 .07 1.585-.07 2.834l-.172-.017-10.913 6.514zm2.769-11.01q.466.043.927.09l-.01.097-13.346 7.971-.132.066c-.11-.097-.19-.177-.25-.236-.155-1.315-.148-2.772-.068-3.921h.024l7.036-4.392v-.045c1.807.066 3.825.187 5.819.37"/><path fill="#002140" d="M31.884 26.208c-.211 1.28-.81 3.07-.81 3.07s-1.468 1.042-3.832 1.952a20.5 20.5 0 0 1-3.78 1.06c-.823.145-1.695.241-2.598.266l-.007-.298 10.913-6.514.173.017a6 6 0 0 1-.06.447m-2.685-3.935-.052.29-14.755 8.954-.02.056a11 11 0 0 1-2.23-1.018 6.6 6.6 0 0 1-1.069-.786l.132-.065 13.346-7.971.01-.097c1.544.155 3.046.353 4.403.595q.12.015.235.042m-18.42 2.997c.128-1.492.599-3.153.81-3.963.208-.076.716-.128 1.45-.16a55 55 0 0 1 3.205-.016q.754.015 1.575.044v.046l-7.04 4.392h-.024q.01-.177.024-.343m5.856 16.43c-.166-.09-.654-.312-.484-.783 2.606.96 5.524 1.105 8.196.315 2.724-.806 5.094-2.474 7.5-3.987 1.454-.917 2.976-1.796 4.582-2.392l.018.052c.429.343.304 1.077.12 1.285-.183.21-.456.318-.716.422-4.267 1.72-6.358 4.759-10.867 5.683-1.454.298-2.828.44-4.313.37-1.343-.059-2.814-.297-4.036-.965"/><path stroke="#002140" stroke-linecap="round" stroke-linejoin="round" stroke-width=".65" d="M13.038 21.134c1-3.326 2.804-6.393 5.424-8.663 2.55-2.209 4.939-3.316 7.735-3.721 3.465-.502 7.044.806 9.58 3.222.485.46.932.962 1.333 1.502a14.2 14.2 0 0 1 1.942 3.634c.962 2.603 1.236 5.483.962 8.259q-.042.416-.093.817c-.232 1.782-.627 3.426-1.111 5.09a106 106 0 0 1-.956 3.078m-24.176 5.33c-.754-3.094-1.34-6.04-1.536-9.123m1.581 9.168c.765.481 1.579.876 2.427 1.187 2.606.962 5.524 1.108 8.196.319 2.724-.807 5.094-2.475 7.5-3.988 1.454-.917 2.976-1.796 4.582-2.391q.702-.266 1.43-.447"/><path stroke="#002140" stroke-linecap="round" stroke-linejoin="round" stroke-width=".65" d="M10.754 25.613q.01-.177.024-.343c.128-1.492.599-3.153.81-3.963.208-.076.716-.128 1.45-.16a55 55 0 0 1 3.205-.016q.754.015 1.575.044a108 108 0 0 1 6.742.46c1.544.157 3.046.354 4.403.596q.12.015.235.042c1.052.19 2.011.408 2.814.654 0 0 .07 1.585-.07 2.835a6 6 0 0 1-.058.446c-.211 1.28-.81 3.07-.81 3.07s-1.468 1.042-3.832 1.952a20.5 20.5 0 0 1-3.779 1.06c-.824.145-1.696.242-2.6.266q-1.07.038-2.197-.08a21 21 0 0 1-3.219-.581q-.58-.15-1.076-.322a11 11 0 0 1-2.23-1.018 6.6 6.6 0 0 1-1.069-.785c-.11-.097-.19-.177-.25-.236-.155-1.315-.148-2.772-.068-3.921m5.396 15.304c-.17.471.318.692.484.782 1.222.669 2.693.907 4.036.966 1.485.07 2.859-.073 4.313-.37 4.51-.924 6.6-3.963 10.867-5.683.26-.104.533-.212.717-.423.183-.207.308-.941-.121-1.284"/><path stroke="#002140" stroke-linecap="round" stroke-linejoin="round" stroke-width=".65" d="M15.381 32.137c-.124 2.564.367 5.742.367 5.742s4.275 1.588 7.94.12c0-1.22-.125-2.685-.125-5.129M16.25 20.777a11.12 11.12 0 0 1 3.686-7.293h7.293c-2.073 2.212-3.302 5.047-3.596 8.061-.007.028-.007.052-.01.08m11.989-9.479c-3.358 2.014-5.79 5.503-6.518 9.348m-1.004 9.788c-.266 1.616-.072 3.229.06 4.859 2.142-1.377 4.298-2.765 6.655-3.724a20.7 20.7 0 0 1 3.932-1.163m.09-14.065c-2.797 2.488-3.998 6.347-4.282 10.078 1.748-.713 3.26-1.135 5.144-1.114"/></g><defs><clipPath id="a"><path fill="#fff" d="M0 0h52v52H0z"/></clipPath></defs></svg>
